icon/cg/music-speaker.svg

<svg viewBox="0 0 24 24" fill="none" xmlns="http://www.w3.org/2000/svg" height="1em" width="1em">
  <path fill-rule="evenodd" clip-rule="evenodd" d="M12 18.939C14.2091 18.939 16 17.1482 16 14.939C16 12.7299 14.2091 10.939 12 10.939C9.79086 10.939 8 12.7299 8 14.939C8 17.1482 9.79086 18.939 12 18.939ZM12 16.939C13.1046 16.939 14 16.0436 14 14.939C14 13.8345 13.1046 12.939 12 12.939C10.8954 12.939 10 13.8345 10 14.939C10 16.0436 10.8954 16.939 12 16.939Z" fill="currentColor"/>
  <path d="M12 9.04401C13.1046 9.04401 14 8.14858 14 7.04401C14 5.93944 13.1046 5.04401 12 5.04401C10.8954 5.04401 10 5.93944 10 7.04401C10 8.14858 10.8954 9.04401 12 9.04401Z" fill="currentColor"/>
  <path fill-rule="evenodd" clip-rule="evenodd" d="M7 1C5.34315 1 4 2.34315 4 4V20C4 21.6569 5.34315 23 7 23H17C18.6569 23 20 21.6569 20 20V4C20 2.34315 18.6569 1 17 1H7ZM17 3H7C6.44772 3 6 3.44772 6 4V20C6 20.5523 6.44772 21 7 21H17C17.5523 21 18 20.5523 18 20V4C18 3.44772 17.5523 3 17 3Z" fill="currentColor"/>
</svg>

<svg width="24" height="24" fill="none" xmlns="http://www.w3.org/2000/svg"><path fill-rule="evenodd" clip-rule="evenodd" d="M12 18.939a4 4 0 1 0 0-8 4 4 0 0 0 0 8Zm0-2a2 2 0 1 0 0-4 2 2 0 0 0 0 4Z" fill="currentColor"/><path d="M12 9.044a2 2 0 1 0 0-4 2 2 0 0 0 0 4Z" fill="currentColor"/><path fill-rule="evenodd" clip-rule="evenodd" d="M7 1a3 3 0 0 0-3 3v16a3 3 0 0 0 3 3h10a3 3 0 0 0 3-3V4a3 3 0 0 0-3-3H7Zm10 2H7a1 1 0 0 0-1 1v16a1 1 0 0 0 1 1h10a1 1 0 0 0 1-1V4a1 1 0 0 0-1-1Z" fill="currentColor"/></svg>
